public/flags/MR.svg

<svg fill="none" height="53" viewBox="0 0 61 53" width="61" xmlns="http://www.w3.org/2000/svg" xmlns:xlink="http://www.w3.org/1999/xlink"><mask id="a" height="43" maskUnits="userSpaceOnUse" width="59" x="1" y="3"><rect fill="#fff" height="42.5" rx="4.24286" width="59" x="1" y="3"/></mask><rect fill="#fff" height="42.5" rx="4.24286" width="59" x="1" y="3"/><g mask="url(#a)"><path d="m1 3h59v42.5h-59z" fill="#108b4d"/><path clip-rule="evenodd" d="m42.7503 19.4334c.1024.6533.1555 1.3231.1555 2.0054 0 7.0416-5.6604 12.75-12.6428 12.75-6.9825 0-12.6429-5.7084-12.6429-12.75 0-.6823.0532-1.3521.1555-2.0054.9539 6.0888 6.1815 10.7446 12.4874 10.7446s11.5335-4.6558 12.4873-10.7446zm-12.2501 1.7653-3.4727 2.4966 1.2813-4.1023-3.4276-2.5592 4.2647-.0388 1.3543-4.0783 1.3544 4.0783 4.2647.0388-3.4276 2.5592 1.2813 4.1023z" fill="#ffc941" fill-rule="evenodd"/></g></svg>

<svg width="61" height="53" viewBox="0 0 61 53" fill="none" xmlns="http://www.w3.org/2000/svg">
<rect x="1" y="3" width="59" height="42.5" rx="4.24286" fill="white"/>
<mask id="mask0" mask-type="alpha" maskUnits="userSpaceOnUse" x="1" y="3" width="59" height="43">
<rect x="1" y="3" width="59" height="42.5" rx="4.24286" fill="white"/>
</mask>
<g mask="url(#mask0)">
<rect x="1" y="3" width="59" height="42.5" fill="#108B4D"/>
<path fill-rule="evenodd" clip-rule="evenodd" d="M42.7503 19.4334C42.8527 20.0867 42.9058 20.7565 42.9058 21.4388C42.9058 28.4804 37.2454 34.1888 30.263 34.1888C23.2805 34.1888 17.6201 28.4804 17.6201 21.4388C17.6201 20.7565 17.6733 20.0867 17.7756 19.4334C18.7295 25.5222 23.9571 30.178 30.263 30.178C36.5689 30.178 41.7965 25.5222 42.7503 19.4334V19.4334ZM30.5002 21.1987L27.0275 23.6953L28.3088 19.593L24.8812 17.0338L29.1459 16.995L30.5002 12.9167L31.8546 16.995L36.1193 17.0338L32.6917 19.593L33.973 23.6953L30.5002 21.1987V21.1987Z" fill="#FFC941"/>
</g>
</svg>
